X:1
T:Title
%%score { ( 1 4 ) | ( 2 3 ) }
L:1/8
M:9/8
K:Ab
V:1 treble nm="Grand Piano"
V:4 treble 
V:2 bass 
V:3 bass 
V:1
 z3 z3[Q:1/4=100] ECE | A3 [Ec]3 BAF | [CE]3 C3 ECE | A3 [Ec]3 [=Dc][DB][DA] | B6 BBc | d3 B3 eed | %6
 c3 A3 [FB][FA]F |[M:19/16] E/-E/-E-<EA/-A/-A-<Acc3/2B |[M:3/4] [CA]6 |[M:3/8] AGA | %10
[M:9/8] B3 d2 G GFG | [CA]6 c2 d | e3 c3 c[Bd][EAc] | [GB]6 [Ac]2 B | A3- A2 A ABc | %15
 [Fd]3 f3 e2 d | c6 z3 |[M:3/4] [CA]6 |] %18
V:2
 z3 z3 E,C,E, | A,3 [A,,A,]3 [D,F,D][D,F,D][D,A,D] | [A,,A,]3 [A,,E,A,]3 E,C,E, | %3
 A,3 [A,,A,]3 [B,,F,][B,,F,][B,,F,] | [E,G,E]6 [E,G,E][E,G,E][E,A,E] | %5
 [E,B,E]3 [E,G,E]3 [G,B,E][G,B,E][G,B,E] | [A,E]3 [A,CE]3 [D,D][D,D][D,A,D] | %7
[M:19/16] [C,A,]/-[C,A,]/-[C,A,]-<[C,A,][F,A,C]/-[F,A,C]/-[F,A,C]-<[F,A,C][E,A,E][E,A,E]3/2[E,G,D] | %8
[M:3/4] [A,,A,]6 |[M:3/8] [A,CE][B,DE][A,CE] |[M:9/8] D3 z3 z3 | %11
 [A,,E,]6[K:treble] [A,E]2 [A,B,E] | z3 z3 .[A,A]3[K:bass] | [E,E]6 [E,E]2 [E,DE] | z3 z3 .E3 | %15
 D,3- [D,DA]3[K:treble] G2 F | E2- [E,E-] [E,E]2 [E,CE] [E,A,E]2 [E,G,D] |[M:3/4] [A,,E,]6 |] %18
V:3
 x9 | x9 | x9 | x9 | x9 | x9 | x9 |[M:19/16] x19/2 |[M:3/4] x6 |[M:3/8] x3 | %10
[M:9/8] [G,E]3- [G,B,E]2 [E,B,D] [E,B,D][E,B,D][E,D] | x6[K:treble] x3 | %12
 [A,CE]3 [A,EA]3 E-[G,E][K:bass]A, | x9 | [A,CE]3- [A,CE]2 [A,CE] [A,C][G,B,][A,_G] | %15
 A,3 z3[K:treble] z3 | .[E,A,]3 z3 z3 |[M:3/4] x6 |] %18
V:4
 x9 | x9 | x9 | x9 | x9 | x9 | x9 |[M:19/16] x19/2 |[M:3/4] x6 |[M:3/8] x3 |[M:9/8] x9 | x9 | x9 | %13
 x9 | x9 | x9 | z2 A, A,2 A c2 B |[M:3/4] x6 |] %18

